packages/Snapp/src/LeaderBoardIcon/index.svg

<?xml version="1.0" encoding="UTF-8"?>
<svg width="24px" height="24px" viewBox="0 0 24 24" version="1.1" xmlns="http://www.w3.org/2000/svg" xmlns:xlink="http://www.w3.org/1999/xlink">
    <title>Icons/24/LeaderBoard</title>
    <g id="Icons/24/LeaderBoard" stroke="none" stroke-width="1" fill="none" fill-rule="evenodd">
        <rect id="Container" fill-opacity="0" fill="#D8D8D8" fill-rule="nonzero" x="0" y="0" width="24" height="24"></rect>
        <path d="M20,10.0673625 C20,11.1796501 19.103,12.0842031 18,12.0842031 L18,8.05052186 L20,8.05052186 L20,10.0673625 Z M12,16.1178843 C9.794,16.1178843 8,14.3087783 8,12.0842031 L8,4.01684062 L16,4.01684062 L16,12.0842031 C16,14.3087783 14.206,16.1178843 12,16.1178843 L12,16.1178843 Z M4,10.0673625 L4,8.05052186 L6,8.05052186 L6,12.0842031 C4.897,12.0842031 4,11.1796501 4,10.0673625 L4,10.0673625 Z M21,6.03368124 L18,6.03368124 L18,3.00842031 C18,2.45076388 17.552,2 17,2 L7,2 C6.448,2 6,2.45076388 6,3.00842031 L6,6.03368124 L3,6.03368124 C2.448,6.03368124 2,6.48444512 2,7.04210155 L2,10.0673625 C2,12.2919377 3.794,14.1010437 6,14.1010437 L6.35,14.1010437 C7.088,16.1955327 8.936,17.7595926 11.179,18.0711945 C11.177,18.0933797 11.167,18.1125397 11.167,18.134725 L11.167,20.1515656 C11.167,20.2120708 11.188,20.2635002 11.2,20.3199718 L8,20.3199718 C7.54,20.3199718 7.167,20.6961125 7.167,21.1599859 C7.167,21.6238592 7.54,22 8,22 L16,22 C16.46,22 16.833,21.6238592 16.833,21.1599859 C16.833,20.6961125 16.46,20.3199718 16,20.3199718 L12.8,20.3199718 C12.812,20.2635002 12.833,20.2120708 12.833,20.1515656 L12.833,18.134725 C12.833,18.1125397 12.823,18.0933797 12.821,18.0711945 C15.064,17.7595926 16.912,16.1955327 17.65,14.1010437 L18,14.1010437 C20.206,14.1010437 22,12.2919377 22,10.0673625 L22,7.04210155 C22,6.48444512 21.552,6.03368124 21,6.03368124 L21,6.03368124 Z" id="Fill-1" fill="#404040"></path>
    </g>
</svg>

<svg viewBox="0 0 24 24" xmlns="http://www.w3.org/2000/svg" fill="currentColor" focusable="false">
  <path d="M20 10.067a2.01 2.01 0 01-2 2.017V8.051h2v2.016zm-8 6.05c-2.206 0-4-1.808-4-4.033V4.017h8v8.067c0 2.225-1.794 4.034-4 4.034zm-8-6.05V8.051h2v4.033c-1.103 0-2-.904-2-2.017zm17-4.033h-3V3.008C18 2.451 17.552 2 17 2H7c-.552 0-1 .45-1 1.008v3.026H3c-.552 0-1 .45-1 1.008v3.025c0 2.225 1.794 4.034 4 4.034h.35c.738 2.095 2.586 3.659 4.829 3.97-.002.022-.012.042-.012.064v2.017c0 .06.021.112.033.168H8a.837.837 0 00-.833.84c0 .464.373.84.833.84h8c.46 0 .833-.376.833-.84a.837.837 0 00-.833-.84h-3.2c.012-.056.033-.108.033-.168v-2.017c0-.022-.01-.042-.012-.064 2.243-.311 4.091-1.875 4.829-3.97H18c2.206 0 4-1.81 4-4.034V7.042c0-.558-.448-1.008-1-1.008z" fill="none"/>
</svg>
